src/pos-icons/account-remove.svg

<svg height="24" viewBox="0 0 24 24" width="24" xmlns="http://www.w3.org/2000/svg"><path d="m15 14c2.67 0 8 1.33 8 4v2h-16v-2c0-2.67 5.33-4 8-4m0-2a4 4 0 0 1 -4-4 4 4 0 0 1 4-4 4 4 0 0 1 4 4 4 4 0 0 1 -4 4m-10-2.41 2.12-2.13 1.42 1.42-2.13 2.12 2.13 2.12-1.42 1.42-2.12-2.13-2.12 2.13-1.42-1.42 2.13-2.12-2.13-2.12 1.42-1.42z"/></svg>

<?xml version="1.0" encoding="UTF-8"?><!DOCTYPE svg PUBLIC "-//W3C//DTD SVG 1.1//EN" "http://www.w3.org/Graphics/SVG/1.1/DTD/svg11.dtd"><svg xmlns="http://www.w3.org/2000/svg" xmlns:xlink="http://www.w3.org/1999/xlink" version="1.1" id="mdi-account-remove" width="24" height="24" viewBox="0 0 24 24"><path d="M15,14C17.67,14 23,15.33 23,18V20H7V18C7,15.33 12.33,14 15,14M15,12A4,4 0 0,1 11,8A4,4 0 0,1 15,4A4,4 0 0,1 19,8A4,4 0 0,1 15,12M5,9.59L7.12,7.46L8.54,8.88L6.41,11L8.54,13.12L7.12,14.54L5,12.41L2.88,14.54L1.46,13.12L3.59,11L1.46,8.88L2.88,7.46L5,9.59Z" /></svg>
